X: 26336
T: Mendiokerra
R: jig
M: 6/8
K: Bminor
fef|b2f baa|fed edB|GAB zdd|ede fef|
b2f baa|fed e2d|cdB BBc|A2z fff|
b2f baa|fed edB|GAB zdd|ede fef|
zbf baa|fed e2d|cde dBA|ABz||ddd|
e2d cBA|def afd|fga gfe|def edc|
BFB cde|fed e2d|cdB B2c|Az ddd|
e2d cBA|def afd|fga gfe|def edc|
BFB cde|fed e2d|cde dBA|B2z||

